package/converter/svg/duotone/caravan-simple.svg

<svg xmlns="http://www.w3.org/2000/svg" viewBox="0 0 640 512"><!-- Font Awesome Pro 6.0.0-alpha2 by @fontawesome - https://fontawesome.com License - https://fontawesome.com/license (Commercial License) --><defs><style>.fa-secondary{opacity:.4}</style></defs><path d="M256 224V160C256 142.327 241.673 128 224 128H96C78.327 128 64 142.327 64 160V224C64 241.673 78.327 256 96 256H224C241.673 256 256 241.673 256 224ZM416 128H352C334.327 128 320 142.327 320 160V224C320 241.673 334.327 256 352 256H416C433.673 256 448 241.673 448 224V160C448 142.327 433.673 128 416 128ZM192 336C143.399 336 104 375.399 104 424S143.399 512 192 512S280 472.601 280 424S240.601 336 192 336Z" class="fa-secondary"/><path d="M624 352H576V192C576 103.634 504.366 32 416 32H64C28.654 32 0 60.654 0 96V352C0 387.346 28.654 416 64 416H72.81C77 353.53 128.47 304 192 304S307 353.53 311.19 416H624C632.837 416 640 408.837 640 400V368C640 359.163 632.837 352 624 352ZM256 224C256 241.673 241.673 256 224 256H96C78.327 256 64 241.673 64 224V160C64 142.327 78.327 128 96 128H224C241.673 128 256 142.327 256 160V224ZM448 224C448 241.673 433.673 256 416 256H352C334.327 256 320 241.673 320 224V160C320 142.327 334.327 128 352 128H416C433.673 128 448 142.327 448 160V224Z" class="fa-primary"/></svg>

<svg xmlns="http://www.w3.org/2000/svg" viewBox="0 0 640 512"><!--! Font Awesome Pro 6.6.0 by @fontawesome - https://fontawesome.com License - https://fontawesome.com/license (Commercial License) Copyright 2024 Fonticons, Inc. --><defs><style>.fa-secondary{opacity:.4}</style></defs><path class="fa-secondary" d="M64 160l0 64c0 17.7 14.3 32 32 32l128 0c17.7 0 32-14.3 32-32l0-64c0-17.7-14.3-32-32-32L96 128c-17.7 0-32 14.3-32 32zm48 272a80 80 0 1 0 160 0 80 80 0 1 0 -160 0zM320 160l0 64c0 17.7 14.3 32 32 32l64 0c17.7 0 32-14.3 32-32l0-64c0-17.7-14.3-32-32-32l-64 0c-17.7 0-32 14.3-32 32z"/><path class="fa-primary" d="M80 32C35.8 32 0 67.8 0 112L0 336c0 44.2 35.8 80 80 80l1.1 0c7.8-54.3 54.4-96 110.9-96s103.1 41.7 110.9 96L576 416l32 0c17.7 0 32-14.3 32-32s-14.3-32-32-32l-32 0 0-160c0-88.4-71.6-160-160-160L80 32zM64 160c0-17.7 14.3-32 32-32l128 0c17.7 0 32 14.3 32 32l0 64c0 17.7-14.3 32-32 32L96 256c-17.7 0-32-14.3-32-32l0-64zm288-32l64 0c17.7 0 32 14.3 32 32l0 64c0 17.7-14.3 32-32 32l-64 0c-17.7 0-32-14.3-32-32l0-64c0-17.7 14.3-32 32-32z"/></svg>
